svgs/myus.svg

<svg width="192" height="192" viewBox="0 0 192 192" fill="none" xmlns="http://www.w3.org/2000/svg">
<path d="M29.4558 102.278C27.5549 82.325 34.7593 62.4231 48.9916 48.3105M102.555 162.657C82.2427 164.592 61.9827 157.09 47.8301 142.344M162.823 88.4774C165.133 109.15 157.629 129.879 142.622 144.283M88.7551 29.2898C109.068 27.0195 129.435 34.2248 143.802 48.7139M47.3668 38.7243L83.0694 22C114.202 70.4694 130.392 98.7065 144.563 153.276L108.861 170C77.4922 121.469 61.9793 94.4389 47.3668 38.7243ZM38.7243 144.153L22 108.45C70.4694 77.3181 98.7065 61.1279 153.276 46.9563L170 82.6589C121.469 114.028 94.4389 129.54 38.7243 144.153Z" stroke="black" stroke-width="12" stroke-linejoin="round"/>
</svg>

<svg xmlns="http://www.w3.org/2000/svg" width="192" height="192" fill="none"><path stroke="#000" stroke-linejoin="round" stroke-width="12" d="M29.456 102.278c-1.901-19.953 5.303-39.855 19.536-53.968m53.563 114.347c-20.312 1.935-40.572-5.567-54.725-20.313m114.993-53.867c2.31 20.673-5.194 41.402-20.201 55.806M88.755 29.29c20.313-2.27 40.68 4.935 55.047 19.424m-96.435-9.99L83.069 22c31.133 48.47 47.323 76.707 61.494 131.276L108.861 170C77.492 121.469 61.979 94.439 47.367 38.724Zm-8.643 105.429L22 108.45c48.47-31.132 76.707-47.322 131.276-61.494L170 82.66c-48.531 31.369-75.561 46.881-131.276 61.494Z"/></svg>
